Printex-remake/img/icons/catalog_sliced/10.svg

<svg width="56" height="98" viewBox="0 0 56 98" fill="none" xmlns="http://www.w3.org/2000/svg">
<g clip-path="url(#clip0)">
<path d="M2.68457 94.8306L41.9438 72.1659L55.975 74.4291L16.7157 97.0938L2.68457 94.8306Z" fill="#D7C7ED"/>
<path d="M7.11914 29.5933L46.1574 7.05284L46.1554 71.2019L13.1576 90.2546L11.9222 89.8823C9.36846 89.1125 7.65102 86.8209 7.11914 83.4736L7.11914 29.5933Z" fill="#E5D4FC"/>
<path d="M9.10547 83.4736L50.2105 60.3159L53.6842 66.1053L51.7513 67.9237L12.9545 90.3247L12.3644 85.5791L9.10547 83.4736Z" fill="#E5D4FC"/>
<path d="M4.47363 84.8759C4.47372 87.1632 6.2882 89.9447 8.52639 91.0884C10.7646 92.2322 12.5789 91.3051 12.5789 89.0177C12.5788 86.7304 10.7643 83.9489 8.5261 82.8052" stroke="black" stroke-linejoin="bevel"/>
<path d="M49.0527 60.3154C51.2909 61.4592 53.1053 63.5726 53.1054 65.86C53.1054 66.7308 52.8425 67.4044 52.3933 67.8417C51.96 68.2636 50.2106 69.5785 50.2106 69.5785" stroke="black" stroke-linejoin="bevel"/>
<path d="M46.1603 62.0521V7.05225L4.47559 31.1207L4.47559 85.2099" stroke="black" stroke-linejoin="bevel"/>
<path d="M6.79004 26.1591L6.79004 17" stroke="black" stroke-linejoin="bevel"/>
<path d="M40.3691 -7.99951L40.3691 6.47524" stroke="black" stroke-linejoin="bevel"/>
<path d="M9.10547 83.2259L49.6316 60.3154" stroke="black" stroke-linejoin="bevel"/>
<path d="M11.4209 91.3311L51.947 68.4206" stroke="black" stroke-linejoin="bevel"/>
<path d="M4.47364 32.8442L1 34.8499L1.00019 28.9364L48.9281 1.26318L48.9279 7.17662L46.1345 8.78954" stroke="black" stroke-linejoin="bevel"/>
<path d="M13.6851 39.529L38.4195 25.2476L38.419 42.2059L13.6846 56.4873L13.6851 39.529Z" fill="white" stroke="black" stroke-linejoin="bevel"/>
<path d="M38.419 51.2476L13.6846 65.529" stroke="black" stroke-linejoin="bevel"/>
<path d="M13.6846 70.529L15.3277 69.0489C16.2554 68.2131 17.2483 67.7766 18.0889 67.835L18.3223 67.8513C19.2827 67.918 20.4537 67.2418 21.4141 66.0661C22.3745 64.8903 23.5455 64.2142 24.5059 64.2809C25.4662 64.3476 26.6373 63.6715 27.5977 62.4957C28.5581 61.3199 29.7291 60.6438 30.6894 60.7105C31.6498 60.7772 32.8209 60.1011 33.7813 58.9253L34.0146 58.6396C34.8552 57.6106 35.8481 56.9004 36.7758 56.6648L38.419 56.2476" stroke="black" stroke-linejoin="bevel"/>
</g>
<defs>
<clipPath id="clip0">
<rect width="98" height="98" fill="white" transform="translate(-21)"/>
</clipPath>
</defs>
</svg>

<svg width="56" height="98" fill="none" xmlns="http://www.w3.org/2000/svg"><g clip-path="url(#clip0)"><path d="M2.685 94.83l39.259-22.664 14.031 2.263-39.26 22.665-14.03-2.263z" fill="#D7C7ED"/><path d="M7.12 29.593l39.037-22.54-.002 64.149-32.997 19.053-1.236-.373c-2.554-.77-4.271-3.061-4.803-6.408v-53.88z" fill="#E5D4FC"/><path d="M9.105 83.474L50.21 60.316l3.474 5.79-1.933 1.818-38.797 22.4-.59-4.745-3.259-2.105z" fill="#E5D4FC"/><path d="M4.474 84.876c0 2.287 1.814 5.069 4.052 6.212 2.239 1.144 4.053.217 4.053-2.07 0-2.288-1.815-5.07-4.053-6.213m40.527-22.49c2.238 1.144 4.052 3.258 4.052 5.545 0 .87-.262 1.544-.712 1.982-.433.422-2.182 1.737-2.182 1.737" stroke="#000" stroke-linejoin="bevel"/><path d="M46.16 62.052v-55L4.476 31.121V85.21M6.79 26.16V17M40.37-8V6.475M9.105 83.226l40.527-22.91M11.42 91.331l40.527-22.91" stroke="#000" stroke-linejoin="bevel"/><path d="M4.474 32.844L1 34.85v-5.914L48.928 1.263v5.914L46.135 8.79" stroke="#000" stroke-linejoin="bevel"/><path d="M13.685 39.529L38.42 25.248l-.001 16.958-24.734 14.281V39.53z" fill="#fff" stroke="#000" stroke-linejoin="bevel"/><path d="M38.419 51.248L13.685 65.529m0 5l1.643-1.48c.927-.836 1.92-1.272 2.76-1.214l.234.016c.96.067 2.132-.61 3.092-1.785.96-1.176 2.131-1.852 3.092-1.785.96.067 2.131-.61 3.092-1.785.96-1.176 2.131-1.852 3.091-1.785.96.066 2.132-.61 3.092-1.786l.234-.285c.84-1.03 1.833-1.74 2.76-1.975l1.644-.417" stroke="#000" stroke-linejoin="bevel"/></g><defs><clipPath id="clip0"><path fill="#fff" transform="translate(-21)" d="M0 0h98v98H0z"/></clipPath></defs></svg>
